X:1
T:Gammal Bergsmanspolska
T:Gruvlten
R:Polska
O:Torsker, Gstrikland
S:efter Spel-Stina
M:3/4
L:1/16
K:Em
B4e3f e4|d4{a}g^fga g4|^f2e2 ^d2e2 f2a2|gfe^d e2e2 B4|
B4e3f e4|d4{a}gfga g4|f2e2 b2g2 f2e2|^defd e4z4:|
K:Am
A2cA B2dB c2ec|d2fd e2d2 c2B2|ABcA B2^G2 E4|ABcA B2^G2 E4|
A2cA B2dB c2ec|defd e2d2 c2B2|ABcd e2Bd c2BA|^GABG A4 z4:|
